icons/node-24.svg

<svg width="24" height="24" viewBox="0 0 24 24" fill="none" xmlns="http://www.w3.org/2000/svg">
<path d="M12 7C12.5304 7 13.0391 6.78929 13.4142 6.41421C13.7893 6.03914 14 5.53043 14 5C14 4.46957 13.7893 3.96086 13.4142 3.58579C13.0391 3.21071 12.5304 3 12 3C11.4696 3 10.9609 3.21071 10.5858 3.58579C10.2107 3.96086 10 4.46957 10 5C10 5.53043 10.2107 6.03914 10.5858 6.41421C10.9609 6.78929 11.4696 7 12 7ZM12 21C12.5304 21 13.0391 20.7893 13.4142 20.4142C13.7893 20.0391 14 19.5304 14 19C14 18.4696 13.7893 17.9609 13.4142 17.5858C13.0391 17.2107 12.5304 17 12 17C11.4696 17 10.9609 17.2107 10.5858 17.5858C10.2107 17.9609 10 18.4696 10 19C10 19.5304 10.2107 20.0391 10.5858 20.4142C10.9609 20.7893 11.4696 21 12 21Z" fill="black"/>
<path d="M2 18V6C2 5.53587 2.18451 5.09088 2.5127 4.7627C2.84088 4.43451 3.28587 4.25 3.75 4.25H7.5C7.91421 4.25 8.25 4.58579 8.25 5C8.25 5.41421 7.91421 5.75 7.5 5.75H3.75C3.6837 5.75 3.62013 5.77636 3.57324 5.82324C3.52636 5.87013 3.5 5.9337 3.5 6V18L3.50488 18.0488C3.51447 18.0969 3.53804 18.1416 3.57324 18.1768C3.62013 18.2236 3.68369 18.25 3.75 18.25H7.5C7.91421 18.25 8.25 18.5858 8.25 19C8.25 19.4142 7.91421 19.75 7.5 19.75H3.75C3.28587 19.75 2.84089 19.5655 2.5127 19.2373C2.18451 18.9091 2 18.4641 2 18ZM20.5 18V6C20.5 5.93369 20.4736 5.87013 20.4268 5.82324C20.3799 5.77636 20.3163 5.75 20.25 5.75H16.5C16.0858 5.75 15.75 5.41421 15.75 5C15.75 4.58579 16.0858 4.25 16.5 4.25H20.25C20.7141 4.25 21.1591 4.43451 21.4873 4.7627C21.8155 5.09088 22 5.53587 22 6V18C22 18.4641 21.8155 18.9091 21.4873 19.2373C21.1591 19.5655 20.7141 19.75 20.25 19.75H16.5C16.0858 19.75 15.75 19.4142 15.75 19C15.75 18.5858 16.0858 18.25 16.5 18.25H20.25C20.3163 18.25 20.3799 18.2236 20.4268 18.1768C20.4736 18.1299 20.5 18.0663 20.5 18Z" fill="black"/>
</svg>

<svg xmlns="http://www.w3.org/2000/svg" width="24" height="24" viewBox="0 0 24 24"><path d="M12 7a2 2 0 1 0-.001-4.001A2 2 0 0 0 12 7Zm0 14a2 2 0 1 0-.001-4.001A2 2 0 0 0 12 21ZM2 18V6a1.75 1.75 0 0 1 1.75-1.75H7.5a.75.75 0 0 1 0 1.5H3.75A.25.25 0 0 0 3.5 6v12l.005.049a.246.246 0 0 0 .245.201H7.5a.75.75 0 0 1 0 1.5H3.75A1.75 1.75 0 0 1 2 18Zm18.5 0V6a.25.25 0 0 0-.25-.25H16.5a.75.75 0 0 1 0-1.5h3.75A1.75 1.75 0 0 1 22 6v12c0 .464-.184.909-.513 1.237a1.746 1.746 0 0 1-1.237.513H16.5a.75.75 0 0 1 0-1.5h3.75a.25.25 0 0 0 .25-.25Z"/></svg>
